icons/home-smile-2-fill.svg

<svg viewBox="0 0 24 24" fill="currentColor" xmlns="http://www.w3.org/2000/svg"><path d="M21 20C21 20.5523 20.5523 21 20 21H4C3.44772 21 3 20.5523 3 20V9.31391C3 9.00773 3.14027 8.71843 3.38065 8.52879L11.3807 2.21793C11.7438 1.93142 12.2562 1.93142 12.6193 2.21793L20.6193 8.52879C20.8597 8.71843 21 9.00773 21 9.31391V20ZM7 12C7 14.7614 9.23858 17 12 17C14.7614 17 17 14.7614 17 12H15C15 13.6569 13.6569 15 12 15C10.3431 15 9 13.6569 9 12H7Z"/></svg>

<svg xmlns="http://www.w3.org/2000/svg" viewBox="0 0 24 24">
    <g>
        <path fill="none" d="M0 0h24v24H0z"/>
        <path d="M21 20a1 1 0 0 1-1 1H4a1 1 0 0 1-1-1V9.314a1 1 0 0 1 .38-.785l8-6.311a1 1 0 0 1 1.24 0l8 6.31a1 1 0 0 1 .38.786V20zM7 12a5 5 0 0 0 10 0h-2a3 3 0 0 1-6 0H7z"/>
    </g>
</svg>
